web/ui/src/components/workflow/workflow-editor/svgs/shape/async-task.svg

<svg height="200" viewBox="0 0 200 200" width="200" xmlns="http://www.w3.org/2000/svg"><g fill="none" fill-rule="evenodd"><rect fill="#fff" height="198" rx="51" stroke="#096dd9" stroke-width="2" width="198" x="1" y="1"/><g transform="translate(40 40)"><path d="m0 0h120v120h-120z" fill="#000" fill-rule="nonzero" opacity="0"/><path d="m112.125 87.75c.375 1.5.46875 3 .46875 4.59375.375.1875 6 2.90625 4.96875 6.09375l-.375 1.125c-.75 2.4375-6.1875 2.34375-7.59375 2.25-.84375 1.3125-1.875 2.53125-3 3.5625.09375.1875 2.4375 6.1875-.65625 7.78125l-1.5.84375c-2.34375 1.21875-5.90625-2.90625-6.65625-3.9375-1.59375.375-3.1875.46875-4.875.375l.28125.09375s-2.8125 6-6.1875 4.96875l-1.125-.375c-2.53125-.75-2.34375-6.65625-2.25-7.6875-1.40625-.9375-2.625-1.96875-3.65625-3.09375l.1875.28125s-6.1875 2.34375-7.875-.75l-.75-1.21875c-1.21875-2.34375 3.1875-6.28125 4.03125-7.03125-.28125-1.5-.46875-3-.46875-4.5-.9375-.5625-5.90625-3.65625-5.0625-6.1875l.375-1.125c.9375-3 6.375-2.34375 7.6875-2.15625.84375-1.3125 1.78125-2.4375 2.90625-3.46875-.28125-1.03125-1.875-6.75.5625-8.0625l1.40625-.5625c2.71875-1.40625 6.09375 2.8125 6.9375 3.9375 1.5-.375 3-.46875 4.59375-.46875.75-1.125 3.65625-5.71875 6.1875-4.96875l1.125.375c2.90625.9375 2.4375 6.09375 2.25 7.59375 1.3125.84375 2.53125 1.875 3.5625 3 1.3125-.375 6.65625-1.6875 7.875.5625l.75 1.40625c1.21875 2.625-2.90625 5.90625-4.125 6.75zm-14.34375-9.1875c-7.3125-2.25-15.09375 1.875-17.4375 9.1875-2.25 7.3125 1.875 15.09375 9.1875 17.4375 7.3125 2.25 15.09375-1.875 17.4375-9.1875 2.34375-7.40625-1.78125-15.1875-9.1875-17.4375zm-6.84375 22.125c-4.875-1.5-7.59375-6.65625-6.09375-11.625 1.5-4.875 6.65625-7.59375 11.625-6.09375 4.875 1.5 7.59375 6.65625 6.09375 11.625-1.5 4.875-6.65625 7.59375-11.625 6.09375zm4.125-13.3125c-2.4375-.75-5.0625.65625-5.8125 3.09375s.65625 5.0625 3.09375 5.8125 5.0625-.65625 5.8125-3.09375-.65625-5.0625-3.09375-5.8125zm-17.90625-32.25c-.75 2.625-1.78125 5.15625-3.09375 7.40625.1875.28125 7.21875 9 2.90625 13.3125l-2.15625 2.15625c-3.1875 3.1875-11.25-1.78125-13.21875-3.09375-2.4375 1.40625-5.0625 2.4375-7.875 3.1875h.5625s-1.5 11.53125-7.6875 11.53125h-2.15625c-4.6875 0-7.3125-9.84375-7.78125-11.71875-2.71875-.75-5.34375-1.875-7.78125-3.375l.46875.46875s-9.09375 7.125-13.40625 2.8125l-1.96875-1.59375c-3.28125-3.28125 2.0625-12.09375 3.09375-13.78125-1.3125-2.25-2.34375-4.6875-3-7.3125-1.78125-.46875-11.71875-3.09375-11.71875-7.78125v-2.15625c0-5.4375 9.46875-7.21875 11.625-7.59375.75-2.625 1.78125-5.0625 3-7.3125-1.03125-1.5-6.5625-10.3125-3.1875-13.6875l2.0625-1.6875c3.84375-3.84375 11.71875 1.59375 13.5 3 2.34375-1.3125 4.78125-2.4375 7.40625-3.09375.5625-2.34375 3.1875-11.53125 7.6875-11.53125h2.15625c5.25 0 7.125 8.90625 7.59375 11.4375 2.625.75 5.15625 1.78125 7.59375 3.09375 1.96875-1.3125 10.21875-6.28125 13.40625-3.09375l1.96875 2.0625c3.75 3.75-1.40625 11.34375-3 13.40625 1.3125 2.34375 2.34375 4.78125 3.09375 7.5.65625.09375 11.4375 1.6875 11.4375 7.6875v2.15625c-.09375 4.3125-9.09375 6.9375-11.53125 7.59375zm-31.6875-33c-13.40625 0-24.28125 10.875-24.28125 24.28125s10.875 24.28125 24.28125 24.28125 24.28125-10.875 24.28125-24.28125-10.875-24.28125-24.28125-24.28125zm0 40.5c-8.90625 0-16.21875-7.21875-16.21875-16.21875 0-8.90625 7.21875-16.21875 16.21875-16.21875 8.90625 0 16.21875 7.21875 16.21875 16.21875 0 8.90625-7.3125 16.21875-16.21875 16.21875zm0-24.28125c-4.5 0-8.0625 3.65625-8.0625 8.0625s3.65625 8.0625 8.0625 8.0625c4.5 0 8.0625-3.65625 8.0625-8.0625s-3.5625-8.0625-8.0625-8.0625z" fill="#096dd9"/></g></g></svg>

<?xml version="1.0" encoding="UTF-8"?>
<svg width="200px" height="200px" viewBox="0 0 200 200" version="1.1" xmlns="http://www.w3.org/2000/svg" xmlns:xlink="http://www.w3.org/1999/xlink">
    <title>默认节点</title>
    <g id="页面-1" stroke="none" stroke-width="1" fill="none" fill-rule="evenodd">
        <g id="节点" transform="translate(-3852.000000, -387.000000)">
            <g id="默认节点备份-2" transform="translate(3852.000000, 387.000000)">
                <rect id="矩形备份-37" stroke="#096DD9" stroke-width="2" fill="#FFFFFF" x="1" y="1" width="198" height="198" rx="51"></rect>
                <g id="设置备份-18" transform="translate(40.000000, 40.000000)">
                    <rect id="矩形" fill="#000000" fill-rule="nonzero" opacity="0" x="0" y="0" width="120" height="120"></rect>
                    <path d="M112.125,87.75 C112.5,89.25 112.59375,90.75 112.59375,92.34375 C112.96875,92.53125 118.59375,95.25 117.5625,98.4375 L117.1875,99.5625 C116.4375,102 111,101.90625 109.59375,101.8125 C108.75,103.125 107.71875,104.34375 106.59375,105.375 C106.6875,105.5625 109.03125,111.5625 105.9375,113.15625 L104.4375,114 C102.09375,115.21875 98.53125,111.09375 97.78125,110.0625 C96.1875,110.4375 94.59375,110.53125 92.90625,110.4375 L93.1875,110.53125 C93.1875,110.53125 90.375,116.53125 87,115.5 L85.875,115.125 C83.34375,114.375 83.53125,108.46875 83.625,107.4375 C82.21875,106.5 81,105.46875 79.96875,104.34375 L80.15625,104.625 C80.15625,104.625 73.96875,106.96875 72.28125,103.875 L71.53125,102.65625 C70.3125,100.3125 74.71875,96.375 75.5625,95.625 C75.28125,94.125 75.09375,92.625 75.09375,91.125 C74.15625,90.5625 69.1875,87.46875 70.03125,84.9375 L70.40625,83.8125 C71.34375,80.8125 76.78125,81.46875 78.09375,81.65625 C78.9375,80.34375 79.875,79.21875 81,78.1875 C80.71875,77.15625 79.125,71.4375 81.5625,70.125 L82.96875,69.5625 C85.6875,68.15625 89.0625,72.375 89.90625,73.5 C91.40625,73.125 92.90625,73.03125 94.5,73.03125 C95.25,71.90625 98.15625,67.3125 100.6875,68.0625 L101.8125,68.4375 C104.71875,69.375 104.25,74.53125 104.0625,76.03125 C105.375,76.875 106.59375,77.90625 107.625,79.03125 C108.9375,78.65625 114.28125,77.34375 115.5,79.59375 L116.25,81 C117.46875,83.625 113.34375,86.90625 112.125,87.75 Z M97.78125,78.5625 C90.46875,76.3125 82.6875,80.4375 80.34375,87.75 C78.09375,95.0625 82.21875,102.84375 89.53125,105.1875 C96.84375,107.4375 104.625,103.3125 106.96875,96 C109.3125,88.59375 105.1875,80.8125 97.78125,78.5625 Z M90.9375,100.6875 C86.0625,99.1875 83.34375,94.03125 84.84375,89.0625 C86.34375,84.1875 91.5,81.46875 96.46875,82.96875 C101.34375,84.46875 104.0625,89.625 102.5625,94.59375 C101.0625,99.46875 95.90625,102.1875 90.9375,100.6875 Z M95.0625,87.375 C92.625,86.625 90,88.03125 89.25,90.46875 C88.5,92.90625 89.90625,95.53125 92.34375,96.28125 C94.78125,97.03125 97.40625,95.625 98.15625,93.1875 C98.90625,90.75 97.5,88.125 95.0625,87.375 Z M77.15625,55.125 C76.40625,57.75 75.375,60.28125 74.0625,62.53125 C74.25,62.8125 81.28125,71.53125 76.96875,75.84375 L74.8125,78 C71.625,81.1875 63.5625,76.21875 61.59375,74.90625 C59.15625,76.3125 56.53125,77.34375 53.71875,78.09375 L54.28125,78.09375 C54.28125,78.09375 52.78125,89.625 46.59375,89.625 L44.4375,89.625 C39.75,89.625 37.125,79.78125 36.65625,77.90625 C33.9375,77.15625 31.3125,76.03125 28.875,74.53125 L29.34375,75 C29.34375,75 20.25,82.125 15.9375,77.8125 L13.96875,76.21875 C10.6875,72.9375 16.03125,64.125 17.0625,62.4375 C15.75,60.1875 14.71875,57.75 14.0625,55.125 C12.28125,54.65625 2.34375,52.03125 2.34375,47.34375 L2.34375,45.1875 C2.34375,39.75 11.8125,37.96875 13.96875,37.59375 C14.71875,34.96875 15.75,32.53125 16.96875,30.28125 C15.9375,28.78125 10.40625,19.96875 13.78125,16.59375 L15.84375,14.90625 C19.6875,11.0625 27.5625,16.5 29.34375,17.90625 C31.6875,16.59375 34.125,15.46875 36.75,14.8125 C37.3125,12.46875 39.9375,3.28125 44.4375,3.28125 L46.59375,3.28125 C51.84375,3.28125 53.71875,12.1875 54.1875,14.71875 C56.8125,15.46875 59.34375,16.5 61.78125,17.8125 C63.75,16.5 72,11.53125 75.1875,14.71875 L77.15625,16.78125 C80.90625,20.53125 75.75,28.125 74.15625,30.1875 C75.46875,32.53125 76.5,34.96875 77.25,37.6875 C77.90625,37.78125 88.6875,39.375 88.6875,45.375 L88.6875,47.53125 C88.59375,51.84375 79.59375,54.46875 77.15625,55.125 Z M45.46875,22.125 C32.0625,22.125 21.1875,33 21.1875,46.40625 C21.1875,59.8125 32.0625,70.6875 45.46875,70.6875 C58.875,70.6875 69.75,59.8125 69.75,46.40625 C69.75,33 58.875,22.125 45.46875,22.125 Z M45.46875,62.625 C36.5625,62.625 29.25,55.40625 29.25,46.40625 C29.25,37.5 36.46875,30.1875 45.46875,30.1875 C54.375,30.1875 61.6875,37.40625 61.6875,46.40625 C61.6875,55.3125 54.375,62.625 45.46875,62.625 Z M45.46875,38.34375 C40.96875,38.34375 37.40625,42 37.40625,46.40625 C37.40625,50.8125 41.0625,54.46875 45.46875,54.46875 C49.96875,54.46875 53.53125,50.8125 53.53125,46.40625 C53.53125,42 49.96875,38.34375 45.46875,38.34375 Z" id="形状" fill="#096DD9"></path>
                </g>
            </g>
        </g>
    </g>
</svg>
